X:1
T:Title
%%score { ( 1 3 ) | ( 2 4 ) }
L:1/8
M:9/8
K:F
V:1 treble nm="Grand Piano"
V:3 treble 
V:2 bass 
V:4 bass 
V:1
 z3 z3 z2[Q:1/4=100] A | [CA]AA [DB]2 A [Ec]2 B | [CA]3- [CA]2 A [CA]GF | %3
 [B,G]6[K:bass][K:treble] z3 | [CA]6- [CA]2 z | [CA]AA [=B,_A]2 =A [Ec]2 B | %6
 [CA]3- [CA]2 A [CA]GF | [B,G]3 [DB]3 [CA]3 | [A,F]6- [A,F]2 z |[M:12/8] E>EE EFG G2 F .F3 | %10
 A>AA AB[CFc] [CEG]6 | %11
[M:27/16] [CFA][CFA][CFA][CFA]-<[CFA][CFA][B,FB]-<[B,FB][Fc][Fd]/-[Fd]/-[Fd]-<[Fd][Fd]3/2 | %12
[M:6/4] z2 z [EG]3 z6 |[M:11/8] [A,CF]-[A,CF]-[A,CF]-[A,CF]-[A,CF]-[A,CF]- [A,CF]3 z2 |] %14
V:2
 z3 z3 z2 C | .[F,,F,]CC .F,2 C .F,2 D | .[F,,F,]3 .F,2 C .F,B,A, | .[C,,C,]3 z3 .[C,E,]3 | %4
 .[F,,F,]3 F,6 | .[F,,F,]CC .F,2 C .F,2 D | .[F,,F,]3 .F,2 C .F,B,A, | %7
 .[C,,C,]3 .[C,E,]3 .[C,E,]3 | [F,,F,]6- [F,,F,]2 z | %9
[M:12/8] [C,G,C]>[C,G,C][C,G,C] [C,C]-[C,A,C][C,B,C] [F,B,C]2 [F,A,C] .[F,A,C]3 | z3 .C3 z6 | %11
[M:27/16] F,F,F,F,-<F,_E,D,-<D,[C,A,][B,,B,]/-[B,,B,]/-[B,,B,]-<[B,,B,][B,,B,]3/2 | %12
[M:6/4] [C,A,]C, .C,4 C3 C,3 |[M:11/8] F,-F,-F,-F,-F,-F,- F,3 z2 |] %14
V:3
 x9 | x9 | x9 | z3[K:bass] .[C,E,]3[K:treble] [DB]3 | x9 | x9 | x9 | x9 | x9 |[M:12/8] x12 | x12 | %11
[M:27/16] x27/2 |[M:6/4] [Fc][CFA][A,F] B,3- [B,-FA]3 [B,CG]3 |[M:11/8] x11 |] %14
V:4
 x9 | x9 | x9 | x9 | x9 | x9 | x9 | x9 | x9 |[M:12/8] z3 .G,3 z6 | %10
 [F,CF]>[F,CF][F,CF] [F,F]-[F,DF]A,, C,6 |[M:27/16] x27/2 |[M:6/4] z2 z C,3- C,3 z z2 | %13
[M:11/8] x11 |] %14

